X:1
T:Heidenröslein / Wild Rose
C:Franz Schubert
K:G
M:2/4
L:1/8
Q:1/4=100
% Melody only — public domain. Schubert D.257.
% Verse phrase 1
D2 | G2 A2 | B3 A | G4 | z2 D2 |
% Verse phrase 2
G2 A2 | B3 A | G4 | z2 B2 |
% Bridge / higher phrase
c2 d2 | B2 A2 | G4 | z2 D2 |
% Closing phrase
G2 A2 | B3 A | G4 |]
